icon_installer/data/icons/scalable/actions/show-file-manager-symbolic.svg

<?xml version="1.0" encoding="UTF-8"?>
<svg height="16px" viewBox="0 0 16 16" width="16px" xmlns="http://www.w3.org/2000/svg">
    <path d="m 4 0 c -1.644531 0 -3 1.355469 -3 3 v 10 c 0 1.644531 1.355469 3 3 3 h 8 c 1.644531 0 3 -1.355469 3 -3 v -10 c 0 -1.644531 -1.355469 -3 -3 -3 z m 0 2 h 8 c 0.570312 0 1 0.429688 1 1 v 4 h -10 v -4 c 0 -0.570312 0.429688 -1 1 -1 z m 2.464844 1.429688 c -0.019532 0 -0.039063 0.003906 -0.058594 0.007812 c -0.019531 0 -0.042969 0 -0.0625 0 c -0.214844 0.070312 -0.355469 0.273438 -0.34375 0.5 v 0.0625 c 0 0.546875 0.453125 1 1 1 h 2 c 0.546875 0 1 -0.453125 1 -1 v -0.0625 c 0.011719 -0.675781 -1.011719 -0.675781 -1 0 v 0.0625 h -2 v -0.0625 c 0.003906 -0.296875 -0.246094 -0.527344 -0.535156 -0.507812 z m -3.464844 4.570312 h 10 v 4 c 0 0.570312 -0.429688 1 -1 1 h -8 c -0.570312 0 -1 -0.429688 -1 -1 z m 3.464844 1.429688 c -0.019532 0 -0.039063 0.003906 -0.058594 0.007812 c -0.019531 0 -0.042969 0 -0.0625 0 c -0.214844 0.070312 -0.355469 0.273438 -0.34375 0.5 v 0.0625 c 0 0.546875 0.453125 1 1 1 h 2 c 0.546875 0 1 -0.453125 1 -1 v -0.0625 c 0.011719 -0.675781 -1.011719 -0.675781 -1 0 v 0.0625 h -2 v -0.0625 c 0.003906 -0.296875 -0.246094 -0.527344 -0.535156 -0.507812 z m 0 0" fill="#222222"/>
</svg>

<svg xmlns="http://www.w3.org/2000/svg" width="16" height="16"><path fill="#222" d="M4 0C2.355 0 1 1.355 1 3v10c0 1.645 1.355 3 3 3h8c1.645 0 3-1.355 3-3V3c0-1.645-1.355-3-3-3zm0 2h8c.57 0 1 .43 1 1v4H3V3c0-.57.43-1 1-1zm2.465 1.43c-.02 0-.04.004-.059.007h-.062a.498.498 0 0 0-.344.5V4c0 .547.453 1 1 1h2c.547 0 1-.453 1-1v-.063c.012-.675-1.012-.675-1 0V4H7v-.063a.502.502 0 0 0-.535-.507zM3 8h10v4c0 .57-.43 1-1 1H4c-.57 0-1-.43-1-1zm3.465 1.43a.29.29 0 0 0-.059.008h-.062a.498.498 0 0 0-.344.5V10c0 .547.453 1 1 1h2c.547 0 1-.453 1-1v-.063c.012-.675-1.012-.675-1 0V10H7v-.063a.502.502 0 0 0-.535-.507zm0 0"/></svg>
